Resources/Public/Images/Icons/Glyphicons/list.svg

<svg xmlns="http://www.w3.org/2000/svg" width="32" height="32"><path d="M2.3 1.3h2.5c.3 0 .6.1.9.4s.3.6.3 1v2.7c0 .3-.1.6-.4.9-.2.2-.5.4-.8.4H2.3c-.3 0-.6-.1-.9-.4-.3-.3-.4-.6-.4-1V2.7c0-.4.1-.7.4-1s.5-.4.9-.4zm7.5 0h20c.3 0 .6.1.9.4s.3.6.3 1v2.7c0 .4-.1.7-.4.9-.2.3-.5.4-.9.4h-20c-.3 0-.6-.1-.9-.4-.2-.3-.3-.6-.3-1V2.7c0-.4.1-.7.4-.9.2-.3.5-.5.9-.5zm-7.5 8h2.5c.3 0 .6.1.9.4.2.3.3.6.3 1v2.7c0 .4-.1.7-.4.9s-.5.4-.9.4H2.3c-.3 0-.6-.1-.9-.4s-.4-.6-.4-1v-2.7c0-.4.1-.7.4-.9s.5-.4.9-.4zm7.5 0h20c.3 0 .6.1.9.4.2.3.4.6.4.9v2.7c0 .4-.1.7-.4.9s-.5.4-.9.4h-20c-.3 0-.6-.1-.9-.4-.2-.3-.4-.6-.4-.9v-2.7c0-.4.1-.7.4-.9.2-.2.5-.4.9-.4zm-7.5 8h2.5c.3 0 .6.1.9.4.2.3.3.6.3 1v2.7c0 .4-.1.7-.4.9s-.5.4-.9.4H2.3c-.3 0-.6-.1-.9-.4s-.4-.6-.4-1v-2.7c0-.4.1-.7.4-.9.2-.2.5-.4.9-.4zm7.5 0h20c.3 0 .6.1.9.4.2.3.4.6.4.9v2.7c0 .4-.1.7-.4.9s-.5.4-.9.4h-20c-.3 0-.6-.1-.9-.4-.2-.3-.4-.6-.4-.9v-2.7c0-.4.1-.7.4-.9.2-.2.5-.4.9-.4zm-7.5 8h2.5c.3 0 .6.1.9.4s.3.6.3 1v2.7c0 .4-.1.7-.4.9-.2.3-.5.4-.9.4H2.3c-.3 0-.6-.1-.9-.4s-.4-.6-.4-1v-2.7c0-.4.1-.7.4-.9s.5-.4.9-.4zm7.5 0h20c.3 0 .6.1.9.4s.4.6.4.9v2.7c0 .4-.1.7-.4.9-.2.3-.5.4-.9.4h-20c-.3 0-.6-.1-.9-.4-.2-.3-.4-.6-.4-.9v-2.7c0-.4.1-.7.4-.9.2-.2.5-.4.9-.4z"/></svg>

<?xml version="1.0" encoding="utf-8"?>
<!-- Generator: Adobe Illustrator 22.1.0, SVG Export Plug-In . SVG Version: 6.00 Build 0)  -->
<svg version="1.1" id="Ebene_1" xmlns="http://www.w3.org/2000/svg" xmlns:xlink="http://www.w3.org/1999/xlink" x="0px" y="0px"
	 width="32px" height="32px" viewBox="0 0 32 32" style="enable-background:new 0 0 32 32;" xml:space="preserve">
<path d="M2.3,1.3h2.5c0.3,0,0.6,0.1,0.9,0.4S6,2.3,6,2.7v2.7C6,5.7,5.9,6,5.6,6.3C5.4,6.5,5.1,6.7,4.8,6.7H2.3
	c-0.3,0-0.6-0.1-0.9-0.4C1.1,6,1,5.7,1,5.3V2.7C1,2.3,1.1,2,1.4,1.7S1.9,1.3,2.3,1.3z M9.8,1.3h20c0.3,0,0.6,0.1,0.9,0.4
	S31,2.3,31,2.7v2.7c0,0.4-0.1,0.7-0.4,0.9c-0.2,0.3-0.5,0.4-0.9,0.4h-20c-0.3,0-0.6-0.1-0.9-0.4C8.6,6,8.5,5.7,8.5,5.3V2.7
	c0-0.4,0.1-0.7,0.4-0.9C9.1,1.5,9.4,1.3,9.8,1.3z M2.3,9.3h2.5c0.3,0,0.6,0.1,0.9,0.4C5.9,10,6,10.3,6,10.7v2.7
	c0,0.4-0.1,0.7-0.4,0.9s-0.5,0.4-0.9,0.4H2.3c-0.3,0-0.6-0.1-0.9-0.4S1,13.7,1,13.3v-2.7c0-0.4,0.1-0.7,0.4-0.9S1.9,9.3,2.3,9.3z
	 M9.8,9.3h20c0.3,0,0.6,0.1,0.9,0.4c0.2,0.3,0.4,0.6,0.4,0.9v2.7c0,0.4-0.1,0.7-0.4,0.9s-0.5,0.4-0.9,0.4h-20
	c-0.3,0-0.6-0.1-0.9-0.4c-0.2-0.3-0.4-0.6-0.4-0.9v-2.7c0-0.4,0.1-0.7,0.4-0.9C9.1,9.5,9.4,9.3,9.8,9.3z M2.3,17.3h2.5
	c0.3,0,0.6,0.1,0.9,0.4C5.9,18,6,18.3,6,18.7v2.7c0,0.4-0.1,0.7-0.4,0.9s-0.5,0.4-0.9,0.4H2.3c-0.3,0-0.6-0.1-0.9-0.4S1,21.7,1,21.3
	v-2.7c0-0.4,0.1-0.7,0.4-0.9C1.6,17.5,1.9,17.3,2.3,17.3z M9.8,17.3h20c0.3,0,0.6,0.1,0.9,0.4c0.2,0.3,0.4,0.6,0.4,0.9v2.7
	c0,0.4-0.1,0.7-0.4,0.9s-0.5,0.4-0.9,0.4h-20c-0.3,0-0.6-0.1-0.9-0.4c-0.2-0.3-0.4-0.6-0.4-0.9v-2.7c0-0.4,0.1-0.7,0.4-0.9
	C9.1,17.5,9.4,17.3,9.8,17.3z M2.3,25.3h2.5c0.3,0,0.6,0.1,0.9,0.4S6,26.3,6,26.7v2.7c0,0.4-0.1,0.7-0.4,0.9
	c-0.2,0.3-0.5,0.4-0.9,0.4H2.3c-0.3,0-0.6-0.1-0.9-0.4S1,29.7,1,29.3v-2.7c0-0.4,0.1-0.7,0.4-0.9S1.9,25.3,2.3,25.3z M9.8,25.3h20
	c0.3,0,0.6,0.1,0.9,0.4s0.4,0.6,0.4,0.9v2.7c0,0.4-0.1,0.7-0.4,0.9c-0.2,0.3-0.5,0.4-0.9,0.4h-20c-0.3,0-0.6-0.1-0.9-0.4
	c-0.2-0.3-0.4-0.6-0.4-0.9v-2.7c0-0.4,0.1-0.7,0.4-0.9C9.1,25.5,9.4,25.3,9.8,25.3z"/>
</svg>
